X:1
T:Title
%%score { ( 1 4 5 ) | ( 2 3 ) }
L:1/8
M:4/4
K:Bb
V:1 treble nm="Grand Piano"
V:4 treble 
V:5 treble 
V:2 bass 
V:3 bass 
V:1
 z4 z2[Q:1/4=116] B2 | B4 B2 A2 | G4[K:bass][K:treble] z4 | A4 A2 G2 | F6 G2 | G4 G2 F2 | %6
 E4 D2 C2 | D3 E F2 E2 | D6 D2 | z2 z ^F G2 A2 | B4 G2 B2 | z2 z G A2 B2 | A6 A2 | z2 z A B2 A2 | %14
 G4 z4 | A4 c2 A2 | B6 z2 | B4 d2 B2 | A3 B c2 B2 | A4 G4 | F6 z2 | z2 z B c2 B2 | A4 F2 B2 | %23
 d4 c4 |[M:3/4] B6 |] %25
V:2
 z8 | z2 B,2 z4 | E,2 z2 [F,A,]4 | C,2 z G F,2 A,2 | B,2 F,2 D,2 B,,2 | z2 B,2 z4 | %6
 C,2 A,2 F,2 E,2 | F,2 C,2 [E,A,]4 | B,2 B,,2 D,2 F,2 | E,2 G,4 [G,B,]2 | E,2 G,2 B,2 G,2 | %11
 E,2 F,4 [F,A,]2 | E,2 C2 A,2 F,2 | E,2 G,4 [G,B,]2 | E,2 G,2 F,2 [A,C]2 | %15
 F,2[K:treble] z B A,2 C2 | B,2[K:bass] F,2 B,2[K:treble] B2 | D,2 z c[K:bass] F,4 | %18
 E,2 C,2 [F,A,]4 | z2 [E,F,]4 [E,F,]2- | [E,F,]2 [E,F,]2 [E,F,]2 z2 | E,2 F,4 [E,F,A,]2 | %22
 C,2 z[K:treble] G A,2 z2 | z2[K:bass] [E,F,]4 [E,F,]2 |[M:3/4] B,2 F,2 B,,2 |] %25
V:3
 x8 | D,2 z A F,4 | x8 | z2 E,2 z4 | x8 | E,2 z F E,4 | x8 | x8 | x8 | x8 | x8 | x8 | x8 | x8 | %14
 x8 | z2[K:treble] C2 z4 | x2[K:bass] x4[K:treble] x2 | z2 B,2[K:bass] z4 | x8 | x8 | x8 | x8 | %22
 z2 E,2[K:treble] z4 | x2[K:bass] x6 |[M:3/4] x6 |] %25
V:4
 x8 | x8 | z2[K:bass] C,2[K:treble] F2 A2 | x8 | x8 | x8 | x8 | x8 | x8 | G4 z4 | x8 | A4 z4 | x8 | %13
 G4 z4 | z2 B,2 F2 F2 | x8 | x8 | x8 | x8 | x8 | z2 A,2 A,2 A2 | A4 z4 | x8 | z4 z2 A,2 | %24
[M:3/4] x6 |] %25
V:5
 x8 | x8 | x2[K:bass] x2[K:treble] x4 | x8 | x8 | x8 | x8 | x8 | x8 | z2 B,4 z2 | x8 | z2 A,4 z2 | %12
 x8 | z2 B,4 z2 | x8 | x8 | x8 | x8 | x8 | z2 A,4 A,2- | A,2 z2 z4 | z2 A,4 z2 | x8 | z2 A,4 z2 | %24
[M:3/4] x6 |] %25

